groups/cycloalkanes/cyclononane.svg

<svg xmlns="http://www.w3.org/2000/svg" xmlns:rdkit="http://www.rdkit.org/xml" xmlns:xlink="http://www.w3.org/1999/xlink" width="256" height="256" baseProfile="full" version="1.1" viewBox="0 0 256 256" xml:space="preserve"><rect style="opacity:1;fill:#fff;stroke:none" width="256" height="256" x="0" y="0"/><path d="M 11.6364,188.331 L 37.3276,172.909" class="bond-0" style="fill:none;fill-rule:evenodd;stroke:#7f7f7f;stroke-width:2px;stroke-linecap:butt;stroke-linejoin:miter;stroke-opacity:1"/><path d="M 37.3276,172.909 L 63.0188,157.487" class="bond-0" style="fill:none;fill-rule:evenodd;stroke:#000;stroke-width:2px;stroke-linecap:butt;stroke-linejoin:miter;stroke-opacity:1"/><path d="M 63.0188,157.487 L 112.895,192.144" class="bond-1" style="fill:none;fill-rule:evenodd;stroke:#000;stroke-width:2px;stroke-linecap:butt;stroke-linejoin:miter;stroke-opacity:1"/><path d="M 63.0188,157.487 L 54.9851,98.0707" class="bond-9" style="fill:none;fill-rule:evenodd;stroke:#000;stroke-width:2px;stroke-linecap:butt;stroke-linejoin:miter;stroke-opacity:1"/><path d="M 112.895,192.144 L 173.734,195.085" class="bond-2" style="fill:none;fill-rule:evenodd;stroke:#000;stroke-width:2px;stroke-linecap:butt;stroke-linejoin:miter;stroke-opacity:1"/><path d="M 173.734,195.085 L 226.491,165.09" class="bond-3" style="fill:none;fill-rule:evenodd;stroke:#000;stroke-width:2px;stroke-linecap:butt;stroke-linejoin:miter;stroke-opacity:1"/><path d="M 226.491,165.09 L 244.364,107.838" class="bond-4" style="fill:none;fill-rule:evenodd;stroke:#000;stroke-width:2px;stroke-linecap:butt;stroke-linejoin:miter;stroke-opacity:1"/><path d="M 244.364,107.838 L 203.525,65.3978" class="bond-5" style="fill:none;fill-rule:evenodd;stroke:#000;stroke-width:2px;stroke-linecap:butt;stroke-linejoin:miter;stroke-opacity:1"/><path d="M 203.525,65.3978 L 150.864,91.6509" class="bond-6" style="fill:none;fill-rule:evenodd;stroke:#000;stroke-width:2px;stroke-linecap:butt;stroke-linejoin:miter;stroke-opacity:1"/><path d="M 150.864,91.6509 L 100.749,60.9147" class="bond-7" style="fill:none;fill-rule:evenodd;stroke:#000;stroke-width:2px;stroke-linecap:butt;stroke-linejoin:miter;stroke-opacity:1"/><path d="M 100.749,60.9147 L 54.9851,98.0707" class="bond-8" style="fill:none;fill-rule:evenodd;stroke:#000;stroke-width:2px;stroke-linecap:butt;stroke-linejoin:miter;stroke-opacity:1"/><path d="M27.0186,213.956 C28.9402,211.35 28.2992,210.282 25.0958,210.753 C21.8924,211.223 21.2514,210.155 23.173,207.55 C25.0946,204.944 24.4537,203.876 21.2502,204.346 C18.0468,204.817 17.4059,203.749 19.3275,201.143 C21.249,198.537 20.6081,197.47 17.4047,197.94 C14.2013,198.411 13.5603,197.343 15.4819,194.737 C17.4035,192.131 16.7626,191.063 13.5591,191.534 C10.3557,192.004 9.71478,190.937 11.6364,188.331 C13.5579,185.725 12.917,184.657 9.71359,185.128 C6.51015,185.598 5.86923,184.53 7.79081,181.924 C9.7124,179.319 9.07147,178.251 5.86804,178.721 C2.6646,179.192 2.02368,178.124 3.94526,175.518 C5.86684,172.912 5.22592,171.845 2.02249,172.315 C-1.18095,172.786 -1.82187,171.718 0.0997095,169.112 C2.02129,166.506 1.38037,165.438 -1.82307,165.909 C-5.0265,166.379 -5.66743,165.312 -3.74584,162.706" style="fill:none;stroke:#7f7f7f;stroke-width:2px;stroke-linecap:butt;stroke-linejoin:miter;stroke-opacity:1"/></svg>

<svg height="256" viewBox="0 0 256 256" width="256" xmlns="http://www.w3.org/2000/svg"><path d="m0 0h256v256h-256z" fill="#fff"/><g fill="none" stroke-width="2"><path d="m11.636 188.331 25.692-15.422" stroke="#7f7f7f"/><path d="m37.328 172.909 25.691-15.422" stroke="#000"/><path d="m63.019 157.487 49.876 34.657" stroke="#000"/><path d="m63.019 157.487-8.034-59.416" stroke="#000"/><path d="m112.895 192.144 60.839 2.941" stroke="#000"/><path d="m173.734 195.085 52.757-29.995" stroke="#000"/><path d="m226.491 165.09 17.873-57.252" stroke="#000"/><path d="m244.364 107.838-40.839-42.44" stroke="#000"/><path d="m203.525 65.398-52.661 26.253" stroke="#000"/><path d="m150.864 91.651-50.115-30.736" stroke="#000"/><path d="m100.749 60.915-45.764 37.156" stroke="#000"/><path d="m27.019 213.956c1.921-2.606 1.28-3.674-1.923-3.203-3.204.47-3.845-.598-1.923-3.203 1.922-2.606 1.281-3.674-1.923-3.204-3.203.471-3.844-.597-1.922-3.203 1.921-2.606 1.28-3.673-1.923-3.203-3.204.471-3.845-.597-1.923-3.203s1.281-3.674-1.923-3.203c-3.203.47-3.844-.597-1.923-3.203 1.922-2.606 1.281-3.674-1.922-3.203-3.204.47-3.845-.598-1.923-3.204 1.921-2.605 1.28-3.673-1.923-3.203-3.203.471-3.844-.597-1.923-3.203 1.922-2.606 1.281-3.673-1.923-3.203-3.203.471-3.844-.597-1.922-3.203 1.921-2.606 1.28-3.674-1.923-3.203-3.204.47-3.844-.597-1.923-3.203" stroke="#7f7f7f"/></g></svg>
